build/img/icons/clock.svg

<svg width="32" height="32" viewBox="0 0 32 32" fill="none" xmlns="http://www.w3.org/2000/svg">
<path d="M25.8099 24.4214C27.825 22.0771 28.9348 19.0864 28.9348 16.0001C28.9348 8.86713 23.1317 3.06396 15.9987 3.06396C8.86567 3.06396 3.0625 8.86713 3.0625 16.0001C3.0625 23.1331 8.86567 28.9363 15.9987 28.9363C19.0849 28.9363 22.0756 27.8265 24.4199 25.8113C24.6312 25.6297 24.9482 25.6516 25.1331 25.8584C25.3834 25.6263 25.6249 25.3848 25.857 25.1346C25.6501 24.9496 25.6282 24.6326 25.8099 24.4214ZM15.488 4.59588C15.488 4.31387 15.7167 4.08524 15.9987 4.08524C16.2807 4.08524 16.5093 4.31387 16.5093 4.59588V6.63843C16.5093 6.92044 16.2807 7.14907 15.9987 7.14907C15.7167 7.14907 15.488 6.92044 15.488 6.63843V4.59588ZM6.63697 16.5108H4.59441C4.31241 16.5108 4.08378 16.2821 4.08378 16.0001C4.08378 15.7181 4.31241 15.4895 4.59441 15.4895H6.63697C6.91898 15.4895 7.14761 15.7181 7.14761 16.0001C7.14761 16.2821 6.91898 16.5108 6.63697 16.5108ZM16.5093 27.4044C16.5093 27.6864 16.2807 27.915 15.9987 27.915C15.7167 27.915 15.488 27.6864 15.488 27.4044V25.3618C15.488 25.0798 15.7167 24.8512 15.9987 24.8512C16.2807 24.8512 16.5093 25.0798 16.5093 25.3618V27.4044ZM24.4238 9.74148L17.8427 16.3226C17.6893 17.2018 16.9211 17.8725 15.9987 17.8725C15.6676 17.8725 15.3566 17.7858 15.0865 17.6344L9.74315 22.9778C9.64347 23.0775 9.51275 23.1274 9.38209 23.1274C9.25144 23.1274 9.12071 23.0776 9.02104 22.9778C8.82161 22.7784 8.82161 22.4551 9.02104 22.2557L14.3644 16.9123C14.2634 16.732 14.1915 16.5334 14.1547 16.3227L9.74001 11.9079C9.54059 11.7085 9.54059 11.3852 9.74001 11.1858L11.1843 9.74155C11.3837 9.54213 11.7071 9.54213 11.9064 9.74155L16.3211 14.1563C16.3428 14.16 16.3644 14.1638 16.3857 14.1684L17.0816 13.4726C16.8823 13.2732 16.8823 12.95 17.0818 12.7506L22.2573 7.57508C22.3531 7.47935 22.483 7.4255 22.6184 7.4255C22.7538 7.4255 22.8837 7.47928 22.9794 7.57508L24.4237 9.01937C24.6232 9.21872 24.6232 9.54206 24.4238 9.74148ZM25.3604 16.5108C25.0784 16.5108 24.8497 16.2821 24.8497 16.0001C24.8497 15.7181 25.0784 15.4895 25.3604 15.4895H27.4029C27.6849 15.4895 27.9136 15.7181 27.9136 16.0001C27.9136 16.2821 27.6849 16.5108 27.4029 16.5108H25.3604Z" fill="white"/>
<path d="M17.6377 15.088L23.3453 9.38038L22.6231 8.6582L17.8087 13.4727C17.6093 13.6721 17.2859 13.6721 17.0866 13.4727C17.0864 13.4725 16.3906 14.1683 16.3906 14.1683C16.9261 14.2813 17.3777 14.624 17.6377 15.088Z" fill="#C7C7C7"/>
<path d="M16.0022 1.02148C7.74282 1.02148 1.02344 7.74094 1.02344 16.0002C1.02344 24.2595 7.74282 30.9789 16.0022 30.9789C24.2615 30.9789 30.9809 24.2595 30.9809 16.0002C30.9809 7.74094 24.2615 1.02148 16.0022 1.02148ZM26.5878 25.0872C26.404 25.301 26.0817 25.3254 25.8677 25.1415C25.8651 25.1393 25.8629 25.1368 25.8604 25.1346C25.6283 25.3849 25.3869 25.6264 25.1365 25.8584C25.1388 25.8609 25.1412 25.8631 25.1435 25.8657C25.3273 26.0795 25.303 26.4019 25.0891 26.5858C22.5596 28.7602 19.3325 29.9577 16.0022 29.9577C8.30596 29.9577 2.04471 23.6964 2.04471 16.0002C2.04471 8.30407 8.30596 2.04276 16.0022 2.04276C23.6984 2.04276 29.9596 8.30407 29.9596 16.0002C29.9596 19.3306 28.7622 22.5577 26.5878 25.0872Z" fill="#FC9B09"/>
<path d="M27.3137 4.6863C24.2917 1.66427 20.2738 0 16 0C11.7262 0 7.70826 1.66427 4.6863 4.6863C1.66427 7.70832 0 11.7262 0 16C0 20.2738 1.66427 24.2917 4.6863 27.3137C7.70826 30.3357 11.7262 32 16 32C20.2738 32 24.2917 30.3357 27.3137 27.3137C30.3357 24.2917 32 20.2738 32 16C32 11.7262 30.3357 7.70832 27.3137 4.6863ZM16 30.9787C7.74066 30.9787 1.02128 24.2593 1.02128 16C1.02128 7.74073 7.74066 1.02128 16 1.02128C24.2593 1.02128 30.9787 7.74073 30.9787 16C30.9787 24.2593 24.2593 30.9787 16 30.9787Z" fill="#37373F"/>
<path d="M27.9154 15.9999C27.9154 15.7179 27.6868 15.4893 27.4048 15.4893H25.3622C25.0802 15.4893 24.8516 15.7179 24.8516 15.9999C24.8516 16.2819 25.0802 16.5105 25.3622 16.5105H27.4048C27.6868 16.5105 27.9154 16.2819 27.9154 15.9999Z" fill="#082947"/>
<path d="M22.983 7.57488C22.8872 7.47915 22.7573 7.42529 22.6219 7.42529C22.4865 7.42529 22.3566 7.47908 22.2609 7.57488L17.0853 12.7504C16.8859 12.9498 16.8859 13.273 17.0851 13.4724C17.2847 13.672 17.608 13.672 17.8074 13.4726L22.6218 8.65811L23.344 9.38029L17.6364 15.0879C17.3764 14.6239 16.9248 14.2812 16.3893 14.1681C16.3679 14.1636 16.3462 14.1598 16.3247 14.156L11.9099 9.74128C11.7105 9.54186 11.3872 9.54186 11.1878 9.74128L9.74354 11.1856C9.54412 11.385 9.54412 11.7083 9.74354 11.9077L14.1583 16.3224C14.195 16.533 14.2669 16.7317 14.368 16.9121L9.02457 22.2555C8.82514 22.4549 8.82514 22.7782 9.02457 22.9776C9.12424 23.0772 9.25497 23.1272 9.38562 23.1272C9.51628 23.1272 9.647 23.0773 9.74668 22.9776L15.0901 17.6342C15.3602 17.7855 15.6712 17.8722 16.0022 17.8722C16.9246 17.8722 17.6928 17.2016 17.8462 16.3224L24.4273 9.74128C24.6267 9.54186 24.6267 9.21852 24.4273 9.01917L22.983 7.57488ZM15.0901 14.3657C14.7878 14.535 14.5372 14.7856 14.3679 15.0879L10.8268 11.5468L11.549 10.8246L15.0901 14.3657ZM15.1511 16C15.1511 15.5307 15.5329 15.1489 16.0022 15.1489C16.4715 15.1489 16.8533 15.5307 16.8533 16C16.8533 16.4693 16.4715 16.8511 16.0022 16.8511C15.5329 16.8511 15.1511 16.4693 15.1511 16Z" fill="#37373F"/>
<path d="M16.0043 2.04248C8.30812 2.04248 2.04688 8.30379 2.04688 15.9999C2.04688 23.6961 8.30812 29.9574 16.0043 29.9574C19.3347 29.9574 22.5618 28.76 25.0913 26.5856C25.3052 26.4018 25.3295 26.0793 25.1456 25.8655C25.1434 25.8629 25.1409 25.8607 25.1387 25.8582C24.9538 25.6514 24.6368 25.6295 24.4255 25.8111C22.0813 27.8263 19.0905 28.9361 16.0043 28.9361C8.87132 28.9361 3.06815 23.1329 3.06815 15.9999C3.06815 8.86692 8.87132 3.06376 16.0043 3.06376C23.1373 3.06376 28.9405 8.86692 28.9405 15.9999C28.9405 19.0862 27.8307 22.0769 25.8155 24.4212C25.6339 24.6324 25.6558 24.9494 25.8626 25.1344C25.8651 25.1366 25.8673 25.1391 25.8699 25.1413C26.0838 25.3251 26.4062 25.3008 26.59 25.087C28.7644 22.5574 29.9618 19.3303 29.9618 15.9999C29.9618 8.30379 23.7005 2.04248 16.0043 2.04248Z" fill="#37373F"/>
</svg>

<svg width="32" height="32" fill="none" xmlns="http://www.w3.org/2000/svg"><path d="M25.81 24.421a12.927 12.927 0 003.125-8.42c0-7.134-5.803-12.937-12.936-12.937S3.062 8.867 3.062 16 8.867 28.936 16 28.936c3.086 0 6.077-1.11 8.42-3.125a.51.51 0 01.714.047c.25-.232.492-.473.724-.723a.51.51 0 01-.047-.714zM15.488 4.596a.51.51 0 011.021 0v2.042a.51.51 0 11-1.021 0V4.596zM6.637 16.51H4.594a.51.51 0 010-1.021h2.043a.51.51 0 110 1.02zm9.872 10.893a.51.51 0 11-1.021 0v-2.042a.51.51 0 011.021 0v2.042zM24.424 9.74l-6.581 6.582a1.875 1.875 0 01-2.757 1.311l-5.343 5.344a.51.51 0 01-.722 0 .51.51 0 010-.722l5.343-5.344a1.86 1.86 0 01-.21-.59L9.74 11.909a.51.51 0 010-.722l1.444-1.444c.2-.2.523-.2.722 0l4.415 4.414.065.012.696-.695a.51.51 0 010-.722l5.175-5.176a.511.511 0 01.722 0l1.445 1.444c.2.2.2.523 0 .722zm.936 6.77a.51.51 0 010-1.021h2.043a.51.51 0 110 1.02H25.36z" fill="#fff"/><path d="M17.638 15.088l5.707-5.708-.722-.722-4.814 4.815c-.2.2-.523.2-.722 0l-.696.695a1.88 1.88 0 011.247.92z" fill="#C7C7C7"/><path d="M16.002 1.021c-8.26 0-14.979 6.72-14.979 14.98 0 8.258 6.72 14.978 14.98 14.978 8.259 0 14.978-6.72 14.978-14.979 0-8.26-6.72-14.979-14.979-14.979zm10.586 24.066a.51.51 0 01-.72.055l-.008-.007c-.232.25-.473.491-.723.723l.006.008a.51.51 0 01-.054.72 13.948 13.948 0 01-9.087 3.372C8.306 29.958 2.045 23.696 2.045 16c0-7.696 6.261-13.957 13.957-13.957C23.698 2.043 29.96 8.304 29.96 16a13.95 13.95 0 01-3.372 9.087z" fill="#FC9B09"/><path d="M27.314 4.686A15.895 15.895 0 0016 0 15.895 15.895 0 004.686 4.686 15.895 15.895 0 000 16c0 4.274 1.664 8.292 4.686 11.314A15.895 15.895 0 0016 32c4.274 0 8.292-1.664 11.314-4.686A15.895 15.895 0 0032 16c0-4.274-1.664-8.292-4.686-11.314zM16 30.98c-8.26 0-14.979-6.72-14.979-14.979 0-8.261 6.72-14.98 14.979-14.98 8.26 0 14.979 6.72 14.979 14.979 0 8.26-6.72 14.979-14.979 14.979z" fill="#37373F"/><path d="M27.915 16a.51.51 0 00-.51-.51h-2.043a.51.51 0 100 1.02h2.043a.51.51 0 00.51-.51z" fill="#082947"/><path d="M22.983 7.575a.511.511 0 00-.722 0l-5.176 5.175a.51.51 0 00.722.723l4.815-4.815.722.722-5.708 5.708a1.879 1.879 0 00-1.247-.92l-.064-.012-4.415-4.415a.51.51 0 00-.722 0l-1.444 1.445a.51.51 0 000 .722l4.414 4.414c.037.211.109.41.21.59l-5.343 5.344a.51.51 0 10.722.722l5.343-5.344a1.875 1.875 0 002.756-1.312l6.581-6.58c.2-.2.2-.523 0-.723l-1.444-1.444zm-7.893 6.79c-.302.17-.553.42-.722.723l-3.541-3.541.722-.722 3.541 3.54zM15.151 16a.852.852 0 011.702 0 .852.852 0 01-1.702 0z" fill="#37373F"/><path d="M16.004 2.042C8.308 2.042 2.047 8.304 2.047 16c0 7.696 6.261 13.957 13.957 13.957a13.95 13.95 0 009.087-3.371.51.51 0 00.055-.72l-.007-.008a.51.51 0 00-.713-.047 12.926 12.926 0 01-8.422 3.125C8.871 28.936 3.068 23.133 3.068 16S8.871 3.064 16.004 3.064 28.94 8.867 28.94 16c0 3.086-1.11 6.077-3.125 8.421a.51.51 0 00.048.713l.007.007a.51.51 0 00.72-.054A13.949 13.949 0 0029.962 16c0-7.696-6.261-13.958-13.958-13.958z" fill="#37373F"/></svg>
